X:1
T:Title
%%score { ( 1 4 ) | ( 2 3 ) }
L:1/8
Q:1/4=100
M:4/4
K:Db
V:1 treble nm="Grand Piano"
V:4 treble 
V:2 bass 
V:3 bass 
V:1
 [FA]2 [DF]>[EG] [FA]2 [Fd][Fd] | c2 B>c [Fd]4 | d2 cB [FA]2 FF | E2 B>B [CA]4 | %4
w: Ira~B.~Wilson * * * * *||||
 [CE]2 [CE]>[DF] [EG]2 [DF][CE] | [DF]2 [DF]>[EG] [FA]4 | [GB]2 [AB][AB] [=Ge]2 [GB][Gd] | %7
w: |||
 c2 [GB][Gc] [Fd]4 | [Fd]2 [Fc]>d [Fc][FB][A,DF][EG] | [A,FA][FA][DFA][DGB] [DFA]2 z2 | %10
w: |||
 [Fd]2 [Fc]>d [Fc][FB][A,FA][FB] | z4 [Gc]2[K:bass] z2 | e2 =de [Af]e[K:bass]B,,C, | z4 [=FA]4 | %14
w: ||||
 [DGB]2 [=DAB][DAB] [=Ge]2 [GB][Gd] | c2 [GB][Gc] [Fd]4 |] %16
w: ||
V:2
 [D,D]2 [D,A,]>[D,A,] [D,D]2 [D,A,][D,A,] | [A,G]2 [A,G]>[A,G][K:bass] [D,A,]4 | %2
 [G,B,G]2 [G,CG][G,DG] [D,D]2 [D,A,D][D,A,D] | [E,A,C]2 [E,=G,D]>[E,G,D] [A,,A,]4 | %4
 [A,,A,]2 [A,,A,]>[A,,A,] [A,,A,]2 [A,,A,][A,,A,] | [D,A,]2 [D,A,]>[D,A,] [D,D]4 | %6
 [G,D]2 [F,=D][F,D] [E,E]2 [E,E][E,B,] | [A,A]2 [A,,A,][A,,A,] [D,A,]4 | %8
 [D,A,]2 A,>[A,F] A,A, z A, | D,2 z2 z4 | [D,A,]2 A,>[A,F] A,A, z A, | A,[A,G]A,[A,G] .[E,A,]2 z2 | %12
 [CG]2 [_CF][=CG][K:bass] A,[A,G] z2 | [D,A,]2 [D,=G,][D,G,] z2 D2 | G,2 F,F, [E,E]2 [E,E][E,B,] | %15
 [A,A]2 [A,,A,][A,,A,] [D,A,]4 |] %16
V:3
 x8 | x4[K:bass] x4 | x8 | x8 | x8 | x8 | x8 | x8 | z2 A,,2 D,2 A,,2 | z A,A,,A,, D,A,,B,,C, | %10
 z2 A,,2 D,2 A,,2 | E,2 A,,2 z4 | A,4[K:bass] A,,2 z2 | z4 D,4 | x8 | x8 |] %16
V:4
 x8 | x8 | x8 | x8 | x8 | x8 | x8 | x8 | x8 | x8 | x8 | [Gc]c[Gc]B z[K:bass] A,,C,E, | %12
 x6[K:bass] x2 | [Fd]2 [_Fc][FB] A,2 z2 | x8 | x8 |] %16

